X: 4
T: The Ferry Bridge Hornpipe
T: The Ferry Bridge Clog
M: 4/4
L: 1/8
R: hornpipe / clog
K: D Major
|: A>G |\
F>DA,>D F>Ad>F | (3GAG (3FED C>EA>G | F>Ad>f g>fe>^d | (3efe (3dcB (3ABA (3GG/F/E |
(3FED A,>D F>A d2 | G>E (3FED C>E A2 | F>Ad>f e2 (3ABc | d>A GFE D2 :|
|: A>B |\
c>de>f g2 (3gfe | d>ef>g a2 (3agf | (3gag e>g (3fgf (3def | (3efe (3dcB (3ABA (3GFE |
F>A,D>F A>D (3FGA | G>B,E>D C2 (3BAG | F>dA>F G>g (3edc | d2 A2 D2 :|
